!!!COM:	Bach, Johann Sebastian
!!!CDT:	1685/02/21/-1750/07/28/
!!!OTL@@DE:	Was willst du dich, o meine Seele
!!!SCT:	BWV 425
!!!PC#:	241
!!!AGN:	chorale
**kern	**kern	**kern	**kern
*ICvox	*ICvox	*ICvox	*ICvox
*Ibass	*Itenor	*Ialto	*Isoprn
*I"Bass	*I"Tenor	*I"Alto	*I"Soprano
*clefF4	*clefGv2	*clefG2	*clefG2
*k[]	*k[]	*k[]	*k[]
*d:dor	*d:dor	*d:dor	*d:dor
*M4/4	*M4/4	*M4/4	*M4/4
*met(c)	*met(c)	*met(c)	*met(c)
*MM100	*MM100	*MM100	*MM100
8DL	8FL	4A	4a
8EJ	8GJ	.	.
=1	=1	=1	=1
8FL	4A	4A	4.d
8G	.	.	.
8F	4G	8BL	.
8EJ	.	8c#J	8e
4D	4A	8d	4f
.	.	4f	.
4C	4cnX	.	4g
.	.	8e	.
=2	=2	=2	=2
4F	8cL	8fL	8aL
.	8dJ	8gJ	8bJ
8EL	4e	8gL	4ccnX
8F#J	.	8aJ	.
8GL	4.d	8gL	4b
8G#J	.	8fJ	.
8AL	.	4e	4a
8CJ	8c	.	.
=3	=3	=3	=3
8DL	4.B	4f	4a
8BBJ	.	.	.
4E	.	4e	4g#
.	8d	.	.
4AA;	4c;	4e;	4a;
4AA	4c	8eL	4a
.	.	[8fnXJ	.
=4	=4	=4	=4
4BB	8dL	8fL]	4gnX
.	8GJ	16eL	.
.	.	16dJJ	.
8CL	4c	8eL	4g
8DJ	.	8fJ	.
8EL	4c	8gL	4cc
8C	.	8eJ	.
8F	4c	4f	4a
8E-J	.	.	.
=5	=5	=5	=5
8DL	8dL	4f	8b-L
8C	8AJ	.	8a
8BB-	4c	8enXL	8g
8AAJ	.	[8fJ	8fJ
8BB-L	8dL	8fL]	4.g
8GGJ	8B-XJ	16eL	.
.	.	16dJJ	.
4C	8GL	4e	.
.	16cL	.	8f
.	16B-JJ	.	.
=6	=6	=6	=6
2FF;	2A;	2c;	2f;
4r	4ry	4ry	4r
8DL	8FL	[4d	4a
8EJ	8GJ	.	.
=7	=7	=7	=7
4F	4A	8dL]	4d
.	.	8AJ	.
4C#	4G	8B-L	4e
.	.	[8AJ	.
4D	8FL	8AL]	4f
.	[8B-J	[8dJ	.
4E	4B-]	8dL]	4g
.	.	8c#J	.
=8	=8	=8	=8
8FL	8AL	4d	8aL
16GL	8GJ	.	8bJ
16FJJ	.	.	.
8EL	8GL	8gL	4ccnX
16FL	[8AJ	[8fJ	.
16EJJ	.	.	.
8DL	8AL]	8fL]	4.b
8BBnXJ	16G#L	8dJ	.
.	16F#JJ	.	.
4E	4G#	8BL	.
.	.	16eL	8a
.	.	16dJJ	.
=9	=9	=9	=9
2AA;	2E;	2c;	2a;
4r	4ry	4ry	4r
4AA	4c	[4fnX	4a
=10	=10	=10	=10
4BB	8dL	8fL]	4g
.	8GJ	16eL	.
.	.	16dJJ	.
8CL	4c	8eL	4g
8DJ	.	8fJ	.
8EL	4c	8gL	4cc
8CJ	.	8eJ	.
8FL	8cL	8fL	4a
8DJ	8fJ	8aJ	.
=11	=11	=11	=11
8GL	8dL	8gL	8b-L
8AJ	[8c#J	8fJ	8a
8B-L	8c#L]	8eL	8g
8AJ	8dJ	8dJ	8fJ
8GL	8B-L	8dL	4.e
8EJ	[8GJ	16c#L	.
.	.	16BJJ	.
8AL	8GL]	4c#	.
8AAJ	16AL	.	8d
.	16GJJ	.	.
=12	=12	=12	=12
2D;	2F;	2A;	2d;
4r	4ry	4ry	4r
[4D	8dL	4f	4a
.	8cnXJ	.	.
=13	=13	=13	=13
8DL]	8B-L	4e	8gL
8C#J	8AJ	.	8aJ
8DL	8AL	[4d	8fL
8BB-XJ	16GL	.	8gJ
.	16AJJ	.	.
8GGL	8B-L	8dL]	4.e
8EEJ	8GJ	16c#L	.
.	.	16BJJ	.
4AA	8EL	4c#	.
.	16AL	.	8d
.	16GJJ	.	.
=14	=14	=14	=14
2BB-;	2F;	2d;	2d;
4r	4ry	4ry	4r
4F	8FL	4cnX	4a
.	8GJ	.	.
=15	=15	=15	=15
8FL	8AL	8cL	4a
8EJ	16BnXL	16dL	.
.	16cJJ	16eJJ	.
8DL	8dL	8fL	4b
8GJ	8BJ	16eL	.
.	.	16dJJ	.
8EL	8GL	8gL	4cc
16AL	16cL	16fL	.
16GJJ	16BJJ	16gJJ	.
8FL	8AL	4a	4cc
8EJ	8cJ	.	.
=16	=16	=16	=16
8DL	8fL	8aL	2b
8BBJ	8dJ	16g#L	.
.	.	16f#JJ	.
4E	8BL	4g#	.
.	16eL	.	.
.	16dJJ	.	.
4AA;	4c#;	4e;	4a;
8DL	[4d	4f	4a
8CJ	.	.	.
=17	=17	=17	=17
8BBL	8dL]	[4fnX	4g
8GGJ	16cnXL	.	.
.	16BJJ	.	.
8CL	4c	8fL]	4g
8BB-J	.	16eL	.
.	.	16dJJ	.
8AAL	[4c	4e	4cc
8GGJ	.	.	.
4FF	8cL]	4f	4a
.	16dL	.	.
.	16cJJ	.	.
=18	=18	=18	=18
8GGL	8B-L	16fLL	8b-L
.	.	16eJ	.
16AAL	8cJ	8fJ	8a
16BB-XJJ	.	.	.
8CL	16cLL	8eL	8g
.	16B-J	.	.
8DJ	8AJ	[8fJ	8fJ
8BB-L	16GLL	8fL]	4.g
.	16AJJ	.	.
8GGJ	4B-	16eL	.
.	.	16dJJ	.
8CL	.	4e	.
8CCJ	16cLL	.	8f
.	16B-JJ	.	.
=19	=19	=19	=19
2FF;	2A;	2c;	2f;
4r	4ry	4ry	4r
[4F	4F	4c	4a
=20	=20	=20	=20
4F]	4.G	4B	4d
4E	.	4c#	4e
.	16FLL	.	.
.	16GJJ	.	.
4D	4.A	4d	8fL
.	.	.	8gJ
4AA	.	4c#	4a
.	8G	.	.
=21	=21	=21	=21
2BB-;	2F;	2d;	2d;
4r	4ry	4ry	4r
4AA	4A	4c#	4e
=22	=22	=22	=22
8DL	4A	4d	4f
8FJ	.	.	.
8AL	4A	4c#	4e
8GJ	.	.	.
4.F	4A	8dL	4f
.	.	8cJ	.
.	8dL	8B-L	4g
8E	16cL	8cJ	.
.	16B-JJ	.	.
=23	=23	=23	=23
8FL	8AL	8cL	4a
8EJ	16BnXL	16dL	.
.	16cJJ	16eJJ	.
8DL	8dL	8fL	4b
8GJ	8BJ	16eL	.
.	.	16dJJ	.
8CL	8GL	8eL	8ccL
16DL	8dJ	16fL	8bJ
16EJJ	.	16gJJ	.
8FL	[4c	8aL	4a
8EJ	.	8gJ	.
=24	=24	=24	=24
8DL	8cL]	8f#L	4dd
8EJ	8B-J	8gJ	.
8F#L	8AL	8aL	4cc
8DJ	[8dJ	8f#J	.
4.G	8dL]	4d	8b-L
.	8c	.	8aJ
.	8B-	8eL	8gL
8G#	8BJ	[8dJ	8fJ
=25	=25	=25	=25
4A	[4E	8dL]	4.e
.	.	16c#L	.
.	.	16BnXJJ	.
4AA	16ELL]	4c#	.
.	16FJ	.	.
.	8GJ	.	8d
2D;	2F#;	2A;	2d;
==	==	==	==
*-	*-	*-	*-
!!!hum2abc: -Q ''
!!!title: @{PC#}. @{OTL@@DE}
!!!YOR1: 371 vierstimmige Choralges&auml;nge von Johann Sebastian Bach, 
!!!YOR2: 4th ed. by Alfred D&ouml;rffel (Leipzig: Breitkopf und H&auml;rtel, 
!!!YOR2: c.1875). 178 pp. Plate "V.A.10".  reprint: J.S. Bach, 371 Four-Part 
!!!YOR4: Chorales (New York: Associated Music Publishers, Inc., c.1940).
!!!SMS: B&H, 4th ed, Alfred D&ouml;rffel, c.1875, plate V.A.10
!!!EED:  Craig Stuart Sapp
!!!EEV:  2009/05/22
